; generated by PrusaSlicer 2.5.1+win64 on 2023-03-24 at 17:47:08 UTC

; 

; external perimeters extrusion width = 0.45mm
; perimeters extrusion width = 0.45mm
; infill extrusion width = 0.45mm
; solid infill extrusion width = 0.45mm
; top infill extrusion width = 0.40mm
; first layer extrusion width = 0.42mm

M73 P0 R62
M73 Q0 S62
M107
;TYPE:Custom
M862.3 P "MK3S" ; printer model check
M862.1 P0.4 ; nozzle diameter check
M115 U3.10.0 ; tell printer latest fw version
G90 ; use absolute coordinates
M83 ; extruder relative mode
M104 S215 ; set extruder temp
M140 S60 ; set bed temp
M190 S60 ; wait for bed temp
M109 S215 ; wait for extruder temp
G28 W ; home all without mesh bed level
G80 ; mesh bed leveling
G1 Y-3.0 F1000.0 ; go outside print area
G92 E0.0
G1 X60.0 E9.0 F1000.0 ; intro line
G1 X100.0 E12.5 F1000.0 ; intro line
G92 E0.0
M221 S95

; Don't change E values below. Excessive value can damage the printer.
M907 E430 ; set extruder motor current
G21 ; set units to millimeters
G90 ; use absolute coordinates
M83 ; use relative distances for extrusion
M900 K0.05 ; Filament gcode LA 1.5
M900 K30 ; Filament gcode LA 1.0
M107
;LAYER_CHANGE
;Z:0.2
;HEIGHT:0.2
;BEFORE_LAYER_CHANGE
G92 E0.0
;0.2


G1 E-.8 F2100
G1 Z.4 F10800
;AFTER_LAYER_CHANGE
;0.2
G1 X102.799 Y83.656
G1 Z.2
G1 E.8 F2100
M204 S1000
;TYPE:Skirt/Brim
;WIDTH:0.42
G1 F1200
G1 X103.917 Y82.592 E.04838
G1 X105.05 Y81.9 E.04165
G1 X106.297 Y81.441 E.04165
G1 X107.609 Y81.235 E.04165
G1 X142.058 Y81.224 E1.08013
G1 X143.265 Y81.343 E.03801
G1 X144.338 Y81.64 E.03491
G1 X145.433 Y82.158 E.03801
G1 X146.507 Y82.94 E.04165
G1 X147.33 Y83.818 E.03773
G1 X148.003 Y84.857 E.03883
G1 X148.501 Y86.089 E.04165
G1 X148.738 Y87.278 E.03801
G1 X148.771 Y122.274 E1.09729
G1 X148.634 Y123.379 E.03491
G1 X148.282 Y124.539 E.03801
G1 X147.842 Y125.433 E.03126
G1 X147.201 Y126.344 E.03491
G1 X146.083 Y127.408 E.04838
G1 X144.844 Y128.15 E.04529
G1 X143.379 Y128.634 E.04838
G1 X142.058 Y128.776 E.04165
G1 X107.726 Y128.771 E1.07647
G1 X106.621 Y128.634 E.03491
G1 X105.461 Y128.282 E.03801
G1 X104.466 Y127.782 E.03491
G1 X103.656 Y127.201 E.03126
G1 X102.592 Y126.083 E.04838
G1 X101.85 Y124.844 E.04529
G1 X101.366 Y123.379 E.04838
G1 X101.224 Y122.058 E.04165
G1 X101.229 Y87.726 E1.07647
G1 X101.366 Y86.621 E.03491
G1 X101.64 Y85.662 E.03126
G1 X102.158 Y84.567 E.03801
G1 X102.765 Y83.705 E.03303
; printing object RPi_HQ_Camera_Back.stl id:0 copy 0
;WIPE_START
G1 F8640
G1 X103.917 Y82.592 E-.3699
G1 X105.05 Y81.9 E-.30672
G1 X105.389 Y81.775 E-.08338
;WIPE_END
G1 E-.04 F2100
G1 Z.6 F10800
G1 X106.268 Y85.665
G1 Z.2
G1 E.8 F2100
;TYPE:Perimeter
;WIDTH:0.419999
G1 F1200
G1 X106.757 Y85.372 E.01787
G1 X107.294 Y85.18 E.01787
G1 X107.88 Y85.093 E.0186
G1 X141.927 Y85.093 E1.0675
G1 X142.559 Y85.147 E.01988
G1 X143.112 Y85.315 E.01814
G1 X143.615 Y85.583 E.01787
G1 X144.055 Y85.945 E.01787
G1 X144.296 Y86.237 E.01187
G1 X144.624 Y86.746 E.01899
G1 X144.82 Y87.294 E.01822
G1 X144.907 Y88.102 E.0255
G1 X144.907 Y122.12 E1.06658
G1 X144.818 Y122.718 E.01896
G1 X144.601 Y123.285 E.01904
G1 X144.268 Y123.798 E.0192
G1 X143.853 Y124.241 E.01899
G1 X143.37 Y124.563 E.01822
G1 X142.844 Y124.782 E.01787
G1 X142.474 Y124.855 E.01181
G1 X141.974 Y124.911 E.01579
G1 X108.103 Y124.907 E1.06201
G1 X107.576 Y124.861 E.01659
G1 X107.069 Y124.748 E.01627
G1 X106.515 Y124.5 E.01904
G1 X106.048 Y124.154 E.01822
G1 X105.794 Y123.873 E.01187
G1 X105.441 Y123.381 E.01899
G1 X105.218 Y122.844 E.01822
G1 X105.145 Y122.474 E.01181
G1 X105.089 Y121.974 E.01579
G1 X105.093 Y88.102 E1.06203
G1 X105.124 Y87.665 E.01374
G1 X105.242 Y87.107 E.01789
G1 X105.493 Y86.554 E.01904
G1 X105.838 Y86.056 E.01899
G1 X106.224 Y85.706 E.01634
G1 X106.043 Y85.361 F10800
G1 F1200
G1 X106.595 Y85.03 E.0202
G1 X107.202 Y84.813 E.02019
G1 X107.853 Y84.716 E.02063
G1 X142.124 Y84.716 E1.07455
G1 X142.636 Y84.776 E.01616
M73 P0 R61
G1 X143.257 Y84.965 E.02036
G1 X143.825 Y85.268 E.0202
G1 X144.323 Y85.677 E.02019
G1 X144.736 Y86.18 E.02041
G1 X144.968 Y86.589 E.01474
G1 X145.187 Y87.202 E.02041
G1 X145.243 Y87.576 E.01186
G1 X145.284 Y88.102 E.01656
G1 X145.284 Y121.897 E1.05961
G1 X145.224 Y122.551 E.02058
G1 X145.106 Y123.049 E.01605
G1 X144.822 Y123.684 E.0218
G1 X144.43 Y124.212 E.02062
G1 X144.09 Y124.536 E.01474
G1 X143.549 Y124.898 E.02041
G1 X142.954 Y125.144 E.02019
G1 X142.548 Y125.225 E.01297
G1 X141.983 Y125.288 E.01782
G1 X108.103 Y125.284 E1.0623
G1 X107.449 Y125.224 E.02058
G1 X106.951 Y125.106 E.01605
G1 X106.316 Y124.822 E.0218
G1 X105.794 Y124.434 E.02041
G1 X105.356 Y123.952 E.02041
G1 X105.105 Y123.555 E.01474
G1 X104.856 Y122.954 E.02041
G1 X104.775 Y122.548 E.01297
G1 X104.712 Y121.983 E.01782
G1 X104.716 Y87.852 E1.07017
G1 X104.807 Y87.223 E.01991
G1 X104.962 Y86.747 E.0157
G1 X105.271 Y86.169 E.02057
G1 X105.561 Y85.798 E.01474
G1 X105.998 Y85.401 E.01852
G1 X105.817 Y85.057 F10800
;TYPE:External perimeter
G1 F1200
G1 X106.433 Y84.687 E.02252
G1 X107.11 Y84.445 E.02252
G1 X107.825 Y84.339 E.02267
G1 X142.146 Y84.338 E1.07612
G1 X142.713 Y84.405 E.01791
G1 X143.402 Y84.614 E.02257
G1 X144.036 Y84.953 E.02252
G1 X144.591 Y85.409 E.02252
G1 X145.048 Y85.966 E.02259
G1 X145.312 Y86.431 E.01678
G1 X145.555 Y87.11 E.02259
G1 X145.62 Y87.55 E.01396
G1 X145.661 Y88.102 E.01736
G1 X145.661 Y122.175 E1.06832
G1 X145.554 Y122.892 E.02274
G1 X145.386 Y123.402 E.01684
G1 X145.144 Y123.882 E.01684
G1 X144.714 Y124.463 E.02265
G1 X144.326 Y124.832 E.01678
G1 X143.727 Y125.232 E.02259
G1 X143.064 Y125.507 E.02252
G1 X142.622 Y125.595 E.01414
G1 X141.992 Y125.665 E.01985
G1 X107.825 Y125.661 E1.0713
G1 X107.108 Y125.554 E.02274
M73 P1 R61
M73 Q1 S62
G1 X106.598 Y125.386 E.01684
G1 X106.118 Y125.144 E.01684
G1 X105.539 Y124.715 E.02259
G1 X105.055 Y124.181 E.02259
G1 X104.769 Y123.729 E.01678
G1 X104.493 Y123.064 E.02259
G1 X104.405 Y122.622 E.01414
G1 X104.335 Y121.992 E.01985
G1 X104.339 Y87.825 E1.07131
G1 X104.439 Y87.138 E.02177
G1 X104.614 Y86.599 E.01775
G1 X104.954 Y85.962 E.02264
G1 X105.283 Y85.54 E.01678
G1 X105.773 Y85.097 E.02071
G1 X106.183 Y85.219 F10800
;WIPE_START
G1 F8640
G1 X106.433 Y84.687 E-.17949
G1 X107.11 Y84.445 E-.16587
G1 X107.825 Y84.339 E-.16695
G1 X108.898 Y84.339 E-.24769
;WIPE_END
G1 E-.04 F2100
G1 Z.6 F10800
G1 X142.418 Y85.244
G1 Z.2
G1 E.8 F2100
;TYPE:Solid infill
;WIDTH:0.421115
G1 F1200
G1 X144.545 Y87.371 E.09459
G1 X144.624 Y87.984 E.01945
G1 X142.015 Y85.375 E.11602
G1 X141.48 Y85.375 E.01682
G1 X144.624 Y88.519 E.13981
G1 X144.624 Y89.054 E.01682
G1 X140.945 Y85.375 E.16359
G1 X140.41 Y85.375 E.01682
G1 X144.624 Y89.589 E.18738
G1 X144.624 Y90.124 E.01682
G1 X139.876 Y85.375 E.21117
G1 X139.341 Y85.375 E.01682
G1 X144.624 Y90.659 E.23495
G1 X144.624 Y91.193 E.01682
G1 X138.806 Y85.376 E.25874
G1 X138.271 Y85.376 E.01682
G1 X144.624 Y91.728 E.28252
G1 X144.624 Y92.263 E.01682
G1 X137.736 Y85.376 E.30631
G1 X137.201 Y85.376 E.01682
G1 X144.624 Y92.798 E.33009
G1 X144.624 Y93.333 E.01682
G1 X136.667 Y85.376 E.35388
G1 X136.132 Y85.376 E.01682
G1 X144.624 Y93.868 E.37767
G1 X144.624 Y94.402 E.01682
G1 X135.597 Y85.376 E.40145
G1 X135.062 Y85.376 E.01682
G1 X144.624 Y94.937 E.42524
G1 X144.624 Y95.472 E.01682
M73 Q1 S61
G1 X134.527 Y85.376 E.44902
G1 X133.992 Y85.376 E.01682
G1 X144.624 Y96.007 E.47281
G1 X144.624 Y96.542 E.01682
G1 X133.458 Y85.376 E.49659
G1 X132.923 Y85.376 E.01682
G1 X144.624 Y97.077 E.52038
G1 X144.624 Y97.612 E.01682
G1 X132.388 Y85.376 E.54417
G1 X131.853 Y85.376 E.01682
G1 X144.624 Y98.146 E.56795
G1 X144.624 Y98.681 E.01682
G1 X131.318 Y85.376 E.59174
G1 X130.783 Y85.376 E.01682
G1 X144.624 Y99.216 E.61552
G1 X144.624 Y99.751 E.01682
G1 X130.249 Y85.376 E.63931
G1 X129.714 Y85.376 E.01682
G1 X144.624 Y100.286 E.66309
G1 X144.624 Y100.821 E.01682
G1 X129.179 Y85.376 E.68688
G1 X128.644 Y85.376 E.01682
G1 X144.624 Y101.355 E.71067
G1 X144.624 Y101.89 E.01682
G1 X128.109 Y85.376 E.73445
G1 X127.574 Y85.376 E.01682
G1 X144.624 Y102.425 E.75824
G1 X144.624 Y102.96 E.01682
G1 X127.04 Y85.376 E.78202
G1 X126.505 Y85.376 E.01682
G1 X144.624 Y103.495 E.80581
G1 X144.624 Y104.03 E.01682
G1 X125.97 Y85.376 E.82959
G1 X125.435 Y85.376 E.01682
G1 X144.624 Y104.565 E.85338
G1 X144.624 Y105.099 E.01682
G1 X124.9 Y85.376 E.87716
G1 X124.365 Y85.376 E.01682
G1 X144.624 Y105.634 E.90095
G1 X144.624 Y106.169 E.01682
G1 X123.831 Y85.376 E.92474
G1 X123.296 Y85.376 E.01682
G1 X144.624 Y106.704 E.94852
G1 X144.624 Y107.239 E.01682
G1 X122.761 Y85.376 E.97231
G1 X122.226 Y85.376 E.01682
G1 X144.624 Y107.774 E.99609
G1 X144.624 Y108.309 E.01682
M73 P2 R61
M73 Q2 S61
G1 X121.691 Y85.376 E1.01988
G1 X121.156 Y85.376 E.01682
G1 X144.624 Y108.843 E1.04366
G1 X144.624 Y109.378 E.01682
G1 X120.621 Y85.376 E1.06745
G1 X120.087 Y85.376 E.01682
G1 X144.624 Y109.913 E1.09124
G1 X144.624 Y110.448 E.01682
G1 X119.552 Y85.376 E1.11502
G1 X119.017 Y85.376 E.01682
G1 X144.624 Y110.983 E1.13881
G1 X144.624 Y111.518 E.01682
M73 P2 R60
G1 X118.482 Y85.376 E1.16259
G1 X117.947 Y85.376 E.01682
G1 X144.624 Y112.052 E1.18638
G1 X144.624 Y112.587 E.01682
G1 X117.412 Y85.376 E1.21016
G1 X116.878 Y85.376 E.01682
G1 X144.624 Y113.122 E1.23395
G1 X144.624 Y113.657 E.01682
G1 X116.343 Y85.376 E1.25774
G1 X115.808 Y85.376 E.01682
G1 X144.624 Y114.192 E1.28152
G1 X144.624 Y114.727 E.01682
G1 X115.273 Y85.376 E1.30531
G1 X114.738 Y85.376 E.01682
G1 X144.624 Y115.262 E1.32909
G1 X144.624 Y115.796 E.01682
G1 X114.203 Y85.376 E1.35288
G1 X113.669 Y85.376 E.01682
G1 X144.624 Y116.331 E1.37666
G1 X144.624 Y116.866 E.01682
G1 X113.134 Y85.376 E1.40045
G1 X112.599 Y85.376 E.01682
M73 Q2 S60
G1 X144.624 Y117.401 E1.42424
G1 X144.624 Y117.936 E.01682
G1 X112.064 Y85.376 E1.44802
G1 X111.529 Y85.376 E.01682
M73 P3 R60
M73 Q3 S60
G1 X144.624 Y118.471 E1.47181
G1 X144.624 Y119.005 E.01682
G1 X110.994 Y85.376 E1.49559
G1 X110.46 Y85.376 E.01682
G1 X144.624 Y119.54 E1.51938
G1 X144.624 Y120.075 E.01682
G1 X109.925 Y85.376 E1.54316
G1 X109.39 Y85.376 E.01682
G1 X144.624 Y120.61 E1.56695
G1 X144.624 Y121.145 E.01682
G1 X108.855 Y85.376 E1.59074
G1 X108.32 Y85.376 E.01682
G1 X144.624 Y121.68 E1.61452
G1 X144.609 Y122.2 E.01636
G1 X107.8 Y85.391 E1.63698
G1 X107.339 Y85.465 E.01469
G1 X144.538 Y122.664 E1.65434
G1 X144.398 Y123.059 E.01318
G1 X106.945 Y85.606 E1.66564
G1 X106.601 Y85.796 E.01238
G1 X144.208 Y123.404 E1.67252
G1 X143.981 Y123.711 E.01202
G1 X106.294 Y86.024 E1.67604
G1 X106.019 Y86.284 E.0119
G1 X143.716 Y123.981 E1.67651
G1 X143.402 Y124.202 E.01207
M73 P3 R59
G1 X105.793 Y86.593 E1.67259
G1 X105.607 Y86.941 E.01243
M73 P4 R59
G1 X143.054 Y124.388 E1.66538
G1 X142.761 Y124.51 E.00995
M73 Q4 S60
G1 X142.66 Y124.53 E.00324
G1 X105.465 Y87.335 E1.65417
G1 X105.391 Y87.796 E.01468
G1 X142.212 Y124.617 E1.63753
G1 X141.689 Y124.628 E.01645
G1 X105.376 Y88.315 E1.61495
G1 X105.376 Y88.85 E.01682
G1 X141.154 Y124.628 E1.59116
G1 X140.619 Y124.628 E.01682
G1 X105.376 Y89.385 E1.56737
G1 X105.376 Y89.92 E.01682
G1 X140.084 Y124.628 E1.54359
G1 X139.55 Y124.628 E.01682
M73 Q4 S59
G1 X105.376 Y90.455 E1.5198
G1 X105.376 Y90.989 E.01682
G1 X139.015 Y124.628 E1.49601
G1 X138.48 Y124.628 E.01682
G1 X105.376 Y91.524 E1.47223
G1 X105.376 Y92.059 E.01682
G1 X137.945 Y124.628 E1.44844
G1 X137.41 Y124.628 E.01682
G1 X105.376 Y92.594 E1.42466
G1 X105.375 Y93.128 E.01682
G1 X136.875 Y124.628 E1.40087
G1 X136.34 Y124.628 E.01682
G1 X105.375 Y93.663 E1.37708
G1 X105.375 Y94.198 E.01682
G1 X135.805 Y124.628 E1.3533
G1 X135.27 Y124.628 E.01682
G1 X105.375 Y94.733 E1.32951
G1 X105.375 Y95.267 E.01682
M73 P5 R59
M73 Q5 S59
G1 X134.735 Y124.628 E1.30572
G1 X134.2 Y124.627 E.01682
G1 X105.375 Y95.802 E1.28194
G1 X105.375 Y96.337 E.01682
G1 X133.665 Y124.627 E1.25815
G1 X133.13 Y124.627 E.01682
G1 X105.375 Y96.872 E1.23437
G1 X105.375 Y97.407 E.01682
G1 X132.596 Y124.627 E1.21058
G1 X132.061 Y124.627 E.01682
G1 X105.375 Y97.941 E1.18679
G1 X105.375 Y98.476 E.01682
G1 X131.526 Y124.627 E1.16301
G1 X130.991 Y124.627 E.01682
G1 X105.375 Y99.011 E1.13922
G1 X105.375 Y99.546 E.01682
G1 X130.456 Y124.627 E1.11543
G1 X129.921 Y124.627 E.01682
M73 P5 R58
G1 X105.375 Y100.08 E1.09165
G1 X105.374 Y100.615 E.01682
G1 X129.386 Y124.627 E1.06786
G1 X128.851 Y124.627 E.01682
G1 X105.374 Y101.15 E1.04408
G1 X105.374 Y101.685 E.01682
G1 X128.316 Y124.627 E1.02029
G1 X127.781 Y124.627 E.01682
G1 X105.374 Y102.22 E.9965
G1 X105.374 Y102.754 E.01682
G1 X127.246 Y124.626 E.97272
G1 X126.711 Y124.626 E.01682
G1 X105.374 Y103.289 E.94893
G1 X105.374 Y103.824 E.01682
G1 X126.176 Y124.626 E.92514
G1 X125.642 Y124.626 E.01682
G1 X105.374 Y104.359 E.90136
G1 X105.374 Y104.893 E.01682
G1 X125.107 Y124.626 E.87757
G1 X124.572 Y124.626 E.01682
G1 X105.374 Y105.428 E.85379
G1 X105.374 Y105.963 E.01682
G1 X124.037 Y124.626 E.83
G1 X123.502 Y124.626 E.01682
M73 P6 R58
G1 X105.374 Y106.498 E.80621
G1 X105.374 Y107.033 E.01682
M73 Q6 S59
G1 X122.967 Y124.626 E.78243
G1 X122.432 Y124.626 E.01682
M73 Q6 S58
G1 X105.373 Y107.567 E.75864
G1 X105.373 Y108.102 E.01682
G1 X121.897 Y124.626 E.73485
G1 X121.362 Y124.626 E.01682
G1 X105.373 Y108.637 E.71107
G1 X105.373 Y109.172 E.01682
G1 X120.827 Y124.626 E.68728
G1 X120.292 Y124.626 E.01682
G1 X105.373 Y109.706 E.6635
G1 X105.373 Y110.241 E.01682
G1 X119.757 Y124.625 E.63971
G1 X119.222 Y124.625 E.01682
G1 X105.373 Y110.776 E.61592
G1 X105.373 Y111.311 E.01682
G1 X118.688 Y124.625 E.59214
G1 X118.153 Y124.625 E.01682
G1 X105.373 Y111.845 E.56835
G1 X105.373 Y112.38 E.01682
G1 X117.618 Y124.625 E.54457
G1 X117.083 Y124.625 E.01682
G1 X105.373 Y112.915 E.52078
G1 X105.373 Y113.45 E.01682
G1 X116.548 Y124.625 E.49699
G1 X116.013 Y124.625 E.01682
G1 X105.373 Y113.985 E.47321
G1 X105.373 Y114.519 E.01682
G1 X115.478 Y124.625 E.44942
G1 X114.943 Y124.625 E.01682
G1 X105.372 Y115.054 E.42563
G1 X105.372 Y115.589 E.01682
G1 X114.408 Y124.625 E.40185
G1 X113.873 Y124.625 E.01682
G1 X105.372 Y116.124 E.37806
G1 X105.372 Y116.658 E.01682
G1 X113.338 Y124.625 E.35428
G1 X112.803 Y124.624 E.01682
G1 X105.372 Y117.193 E.33049
G1 X105.372 Y117.728 E.01682
G1 X112.268 Y124.624 E.3067
G1 X111.734 Y124.624 E.01682
G1 X105.372 Y118.263 E.28292
G1 X105.372 Y118.798 E.01682
G1 X111.199 Y124.624 E.25913
G1 X110.664 Y124.624 E.01682
G1 X105.372 Y119.332 E.23534
G1 X105.372 Y119.867 E.01682
G1 X110.129 Y124.624 E.21156
G1 X109.594 Y124.624 E.01682
G1 X105.372 Y120.402 E.18777
G1 X105.372 Y120.937 E.01682
G1 X109.059 Y124.624 E.16399
G1 X108.524 Y124.624 E.01682
G1 X105.372 Y121.471 E.1402
G1 X105.373 Y122.008 E.01688
G1 X107.989 Y124.624 E.11632
G1 X107.376 Y124.546 E.01942
G1 X105.249 Y122.419 E.0946
; stop printing object RPi_HQ_Camera_Back.stl id:0 copy 0
M106 S84.15
;LAYER_CHANGE
;Z:0.3
;HEIGHT:0.1
;BEFORE_LAYER_CHANGE
G92 E0.0
;0.3


;WIPE_START
G1 F8640
G1 X107.376 Y124.546 E-.69459
G1 X107.657 Y124.582 E-.06541
;WIPE_END
G1 E-.04 F2100
G1 Z.6 F10800
;AFTER_LAYER_CHANGE
;0.3
M104 S210 ; set temperature
G1 X107.15 Y128.7
G1 Z.3
G1 E.8 F2100
;TYPE:Skirt/Brim
;WIDTH:0.42
G1 F3000
G1 X106.621 Y128.634 E.00883
G1 X105.461 Y128.282 E.02008
G1 X104.466 Y127.782 E.01845
G1 X103.656 Y127.201 E.01652
G1 X102.592 Y126.083 E.02557
G1 X101.85 Y124.844 E.02393
G1 X101.366 Y123.379 E.02557
G1 X101.224 Y122.058 E.02201
G1 X101.229 Y87.726 E.56887
G1 X101.366 Y86.621 E.01845
G1 X101.64 Y85.662 E.01652
G1 X102.158 Y84.567 E.02009
G1 X102.799 Y83.656 E.01845
G1 X103.917 Y82.592 E.02557
G1 X105.05 Y81.9 E.02201
G1 X106.297 Y81.441 E.02201
G1 X107.609 Y81.235 E.02201
G1 X142.058 Y81.224 E.5708
G1 X143.265 Y81.343 E.02009
G1 X144.338 Y81.64 E.01845
G1 X145.433 Y82.158 E.02009
G1 X146.507 Y82.94 E.02201
G1 X147.33 Y83.818 E.01994
G1 X148.003 Y84.857 E.02052
G1 X148.501 Y86.089 E.02201
G1 X148.738 Y87.278 E.02008
G1 X148.771 Y122.274 E.57987
G1 X148.634 Y123.379 E.01845
G1 X148.282 Y124.539 E.02008
G1 X147.842 Y125.433 E.01652
G1 X147.201 Y126.344 E.01845
G1 X146.083 Y127.408 E.02557
G1 X144.844 Y128.15 E.02393
G1 X143.379 Y128.634 E.02557
G1 X142.058 Y128.776 E.02201
G1 X107.726 Y128.771 E.56887
G1 X107.209 Y128.707 E.00863
